assets/Play button/Flat/play_button_flat.svg

<svg width="32" height="32" viewBox="0 0 32 32" fill="none" xmlns="http://www.w3.org/2000/svg">
<path d="M2 6C2 3.79086 3.79086 2 6 2H26C28.2091 2 30 3.79086 30 6V26C30 28.2091 28.2091 30 26 30H6C3.79086 30 2 28.2091 2 26V6Z" fill="#00A6ED"/>
<path d="M23.5 15.134C24.1667 15.5189 24.1667 16.4811 23.5 16.866L11.5 23.7942C10.8333 24.1791 10 23.698 10 22.9282L10 9.0718C10 8.302 10.8333 7.82088 11.5 8.20578L23.5 15.134Z" fill="white"/>
</svg>

<svg xmlns="http://www.w3.org/2000/svg" width="32" height="32" fill="none"><path fill="#00A6ED" d="M2 6a4 4 0 0 1 4-4h20a4 4 0 0 1 4 4v20a4 4 0 0 1-4 4H6a4 4 0 0 1-4-4V6Z"/><path fill="#fff" d="M23.5 15.134a1 1 0 0 1 0 1.732l-12 6.928a1 1 0 0 1-1.5-.866V9.072a1 1 0 0 1 1.5-.866l12 6.928Z"/></svg>
